X: 37304
T: Sky City
R: jig
M: 6/8
K: Amajor
~c3 edc|~B3 EFG|~A3 cAc|edc dcB|
~c3 edc|~B3 EFG|~A3 cAd|cAG ABd|
~c3 edc|~B3 EFG|~A3 cAc|efe dcB|
~c3 edc|~B3 EFG|~A3 cAd|cAG A2e||
|:fec AfA|gAa AgA|fec ABc|edc Bce|
fec AfA|gAa AgA|fec ABc|1 BAG Ace:|2 ~B3 fed||

